public/static/img/crypto/USDT.svg

<svg width="32" height="32" viewBox="0 0 32 32" fill="none" xmlns="http://www.w3.org/2000/svg">
<g clip-path="url(#clip0_696_7362)">
<path d="M31.9713 15.9946C31.9713 24.7875 24.8437 31.915 16.0509 31.915C7.25837 31.915 0.130493 24.7875 0.130493 15.9946C0.130493 7.20194 7.25837 0.0742188 16.0509 0.0742188C24.8437 0.0742188 31.9713 7.20194 31.9713 15.9946Z" fill="#1BA27A"/>
<path d="M23.5229 8.10205H8.44788V11.7415H14.1657V17.0907H17.8051V11.7415H23.5229V8.10205Z" fill="white"/>
<path d="M16.02 17.6603C11.29 17.6603 7.45526 16.9117 7.45526 15.9882C7.45526 15.0648 11.2898 14.3161 16.02 14.3161C20.7499 14.3161 24.5845 15.0648 24.5845 15.9882C24.5845 16.9117 20.7499 17.6603 16.02 17.6603ZM25.6367 16.2669C25.6367 15.0761 21.3312 14.1108 16.02 14.1108C10.7089 14.1108 6.40308 15.0761 6.40308 16.2669C6.40308 17.3156 9.74174 18.1893 14.1659 18.3829V26.062H17.8049V18.3859C22.2631 18.1984 25.6367 17.321 25.6367 16.2669Z" fill="white"/>
<g clip-path="url(#clip1_696_7362)">
<path d="M31.9713 15.9946C31.9713 24.7875 24.8437 31.915 16.0509 31.915C7.25837 31.915 0.130493 24.7875 0.130493 15.9946C0.130493 7.20194 7.25837 0.0742188 16.0509 0.0742188C24.8437 0.0742188 31.9713 7.20194 31.9713 15.9946Z" fill="#1BA27A"/>
<path d="M23.5229 8.10205H8.44788V11.7415H14.1657V17.0907H17.8051V11.7415H23.5229V8.10205Z" fill="white"/>
<path d="M16.02 17.6603C11.29 17.6603 7.45526 16.9117 7.45526 15.9882C7.45526 15.0648 11.2898 14.3161 16.02 14.3161C20.7499 14.3161 24.5845 15.0648 24.5845 15.9882C24.5845 16.9117 20.7499 17.6603 16.02 17.6603ZM25.6367 16.2669C25.6367 15.0761 21.3312 14.1108 16.02 14.1108C10.7089 14.1108 6.40308 15.0761 6.40308 16.2669C6.40308 17.3156 9.74174 18.1893 14.1659 18.3829V26.062H17.8049V18.3859C22.2631 18.1984 25.6367 17.321 25.6367 16.2669Z" fill="white"/>
</g>
</g>
<defs>
<clipPath id="clip0_696_7362">
<rect width="32" height="32" fill="white"/>
</clipPath>
<clipPath id="clip1_696_7362">
<rect width="32" height="32" fill="white"/>
</clipPath>
</defs>
</svg>

<svg width="32" height="32" fill="none" xmlns="http://www.w3.org/2000/svg"><g clip-path="url(#a)"><path d="M31.971 15.995c0 8.793-7.127 15.92-15.92 15.92S.13 24.788.13 15.995 7.257.075 16.05.075s15.92 7.127 15.92 15.92Z" fill="#1BA27A"/><path d="M23.523 8.102H8.448v3.64h5.718v5.349h3.64v-5.35h5.717V8.103Z" fill="#fff"/><path d="M16.02 17.66c-4.73 0-8.565-.748-8.565-1.672 0-.923 3.835-1.672 8.565-1.672 4.73 0 8.564.749 8.564 1.672 0 .924-3.834 1.672-8.564 1.672Zm9.617-1.393c0-1.19-4.306-2.156-9.617-2.156-5.311 0-9.617.965-9.617 2.156 0 1.049 3.339 1.922 7.763 2.116v7.679h3.639v-7.676c4.458-.188 7.832-1.065 7.832-2.12Z" fill="#fff"/><g clip-path="url(#b)"><path d="M31.971 15.995c0 8.793-7.127 15.92-15.92 15.92S.13 24.788.13 15.995 7.257.075 16.05.075s15.92 7.127 15.92 15.92Z" fill="#1BA27A"/><path d="M23.523 8.102H8.448v3.64h5.718v5.349h3.64v-5.35h5.717V8.103Z" fill="#fff"/><path d="M16.02 17.66c-4.73 0-8.565-.748-8.565-1.672 0-.923 3.835-1.672 8.565-1.672 4.73 0 8.564.749 8.564 1.672 0 .924-3.834 1.672-8.564 1.672Zm9.617-1.393c0-1.19-4.306-2.156-9.617-2.156-5.311 0-9.617.965-9.617 2.156 0 1.049 3.339 1.922 7.763 2.116v7.679h3.639v-7.676c4.458-.188 7.832-1.065 7.832-2.12Z" fill="#fff"/></g></g><defs><clipPath id="a"><path fill="#fff" d="M0 0h32v32H0z"/></clipPath><clipPath id="b"><path fill="#fff" d="M0 0h32v32H0z"/></clipPath></defs></svg>
